Hatter-kde/actions/16/snap-extension.svg

<?xml version="1.0" encoding="UTF-8"?>
<svg viewBox="0 0 16 16" xmlns="http://www.w3.org/2000/svg">
 <defs id="defs3051">
  <style id="current-color-scheme" type="text/css">.ColorScheme-Text {
        color:#363636;
      }</style>
 </defs>
 <path class="ColorScheme-Text" d="m3 2v4h-1v3h1v5h1v-5h1v-3h-1v-4h-1zm5 4v1 1 1h3v-1h3v-1h-3v-1h-3zm-2 1v1h1v-1h-1z" fill="currentColor"/>
</svg>

<svg xmlns="http://www.w3.org/2000/svg" viewBox="0 0 16 16">
  <defs id="defs3051">
    <style type="text/css" id="current-color-scheme">
      .ColorScheme-Text {
        color:#363636;
      }
      </style>
  </defs>
 <path style="fill:currentColor;fill-opacity:1;stroke:none" 
     d="M 3 2 L 3 6 L 2 6 L 2 9 L 3 9 L 3 14 L 4 14 L 4 9 L 5 9 L 5 6 L 4 6 L 4 2 L 3 2 z M 8 6 L 8 7 L 8 8 L 8 9 L 11 9 L 11 8 L 14 8 L 14 7 L 11 7 L 11 6 L 8 6 z M 6 7 L 6 8 L 7 8 L 7 7 L 6 7 z "
     class="ColorScheme-Text"
     />
</svg>
